X: 383
T: Mazourka No. 2.	Op.63
C: Fryderyk Chopin
%%abc-version 2.0
%%abcx-abcm2ps-target-version 5.9.1 (29 Sep 2008)
%%abc-creator hum2abc beta
%%abcx-conversion-date 2021/10/03 11:24:01
%%abc-edited-by Tomasz Sierawski
%%abc-edited-by Jędrzej Mróz
%%abcx-initial-encoding-date 2018-06-02
%%humdrum-veritas 2289825985
%%humdrum-veritas-data 1383319716
%%linebreak <none>
%%barnumbers 0
L: 1/4
M: 3/4
N: Derived from 063-1-BH-002.krn
P: Trois mazourkas pour le piano
Q: "Lento."
%%staves {1 2}
V: 1 clef=treble
V: 2 clef=bass
K: Ab
[V:1] zd2- | 
[V:2] C,[=EB,][EB,] | 
[V:1] d/c/B/A/G/F/ | 
[V:2] C,[FA,][CA,] | 
[V:1] G/C<cG/ | 
[V:2] C,[=EB,][EB,] | 
[V:1] A/>c/f2- | 
[V:2] F,,[FCA,][FDA,] | 
[V:1] ff2- | 
[V:2] G,,[DB,E,][DB,E,] | 
[V:1] f/e/d/c/B/A/ | 
[V:2] A,,[CE,]z | 
[V:1] __A/_G/B/F/_A/G/ | 
[V:2] B,,[D_G,][DB,] | 
[V:1] F/=E/C2 | 
[V:2] C,[=E=G,][EG,] | 
[V:1] {/C}dd2- | 
[V:2] C,,[=EB,][EB,] | 
[V:1] d/c/B/A/G/F/ | 
[V:2] C,[FCA,][CA,] | 
[V:1] G/C<cG/ | 
[V:2] C,,[=EB,][EB,] | 
[V:1] =A/c<f=e/ | 
[V:2] F,,[_EF,][E=A,F,] | 
[V:1] _e/=d/_d/=A/B/=B/ | 
[V:2] B,,[FDG,]z | 
[V:1] d/{/e}d/c/F/A/=B/ | 
[V:2] C,[FCA,]z | 
[V:1] d/c/=B/^F/G/_B/ | 
[V:2] C,,[=EG,][EC_B,] | 
[V:1] =A/_A/F2 | 
[V:2] F,,[CA,][DA,F,] | 
[V:1] E2F | 
[V:2] zD[DG,] & z[E,G,,][E,E,,] | 
[V:1] !mordent!E/=D/Ec & xCC | 
[V:2] z[E,A,,]!accent![E,A,,] | 
[V:1] B2c & z[FD][GD] | 
[V:2] z[B,E,A,,][B,E,A,,] | 
[V:1] !mordent!A/>G/[AC][eE] | 
[V:2] z[A,E,A,,]!accent![CE,A,,] | 
[V:1] E2F | 
[V:2] z[DG,][DG,] & z[E,E,,][E,E,,] | 
[V:1] E/=D/EA & xCC- | 
[V:2] z[E,/A,,/]G,,/[F,F,,] | 
[V:1] G2=D & C=B,/ =A,/G, | 
[V:2] z[=D,G,,][D,G,,] | 
[V:1] G2=D & C/=B,/=A,/B,/G, | 
[V:2] z[=D,G,,][D,G,,] | 
[V:1] [E2_D2][FD-] | 
[V:2] _A,/G,/F,/G,/x & zz!accent![E,E,,] | 
[V:1] !mordent!E/=D/Ec & DCC | 
[V:2] z[E,A,,]!accent![E,A,,] | 
[V:1] B2c & z[FD][GD] | 
[V:2] z[B,E,A,,][B,E,A,,] | 
[V:1] !mordent!A/>G/ [A/C/]z//[f//F//][eE] | 
[V:2] z[A,E,A,,][CE,A,,] | 
[V:1] E2F & z[DG,][DG,] | 
[V:2] z[E,E,,][E,E,,] | 
[V:1] !mordent!E/z//=D//EA & xCC | 
[V:2] z[E,A,,][=D,F,,] | 
[V:1] G2=D & C>=B,G, | 
[V:2] z[=D,G,,][D,G,,] | 
[V:1] G2=D & !accent!C/=B,/=A,/B,/G, | 
[V:2] z[=D,G,,][D,G,,] | 
[V:1] =A2=d & !accent!G/^F/=E/F/=D | 
[V:2] z[=A,=D,G,,][A,D,G,,] | 
[V:1] =d/x//d//dg & c/=B/=A/B/G | 
[V:2] z[=B,=D,G,,]!accent![B,D,G,,] | 
[V:1] G2c & F/=E/=D/E/C | 
[V:2] z[_B,C,G,,][B,C,G,,] | 
[V:1] c/x//c//cf & B/_A/G/A/F | 
[V:2] z[A,C,F,,]!accent![A,C,F,,] | 
[V:1] F/E/[DA,]A,/B,/ | 
[V:2] z[C,F,,][C,F,,] | 
[V:1] C2C | 
[V:2] z=E,E, & z[C,C,,][C,C,,] | 
[V:1] F/E/[DF,][A,/F,/]B,/ | 
[V:2] x2x & z[A,,D,,][A,,D,,] | 
[V:1] C2C | 
[V:2] z[A,E,][A,E,] & z[A,,A,,,][A,,A,,,] | 
[V:1] {/C}dd2- | 
[V:2] =E,,[GCB,][GCB,] | 
[V:1] d/c/B/A/G/F/ | 
[V:2] F,,[FA,][CA,] | 
[V:1] G/C<cG/ | 
[V:2] C,[=EB,][ECB,] | 
[V:1] A/>c/f2- | 
[V:2] F,,[FCA,][FDA,] | 
[V:1] ff3/f/- | 
[V:2] G,,[DB,E,][DB,E,] | 
[V:1] f/e/d/c/B/A/ | 
[V:2] A,,[CE,]z | 
[V:1] __A/_G/B/F/_A/G/ | 
[V:2] B,,[D_G,][DB,] | 
[V:1] F/=E/C2 | 
[V:2] C,[=E=G,][EG,] | 
[V:1] {/C}dd2- | 
[V:2] C,,[=EB,][EB,] | 
[V:1] d/c/B/A/G/F/ | 
[V:2] C,[FCA,][CA,] | 
[V:1] G/C<cG/ | 
[V:2] C,,[=EB,][EB,] | 
[V:1] =A/c<f=e/ | 
[V:2] F,,[_EF,][E=A,F,] | 
[V:1] _e/=d/_d/=A/B/=B/ | 
[V:2] B,,[FDG,F,]z | 
[V:1] d/{/e}d/c/G/A/=B/ | 
[V:2] C,[FCA,]z | 
[V:1] d/c/=B/^F/G/_B/ | 
[V:2] C,,[=EG,][EC_B,] | 
[V:1] =A/_A/F2 |]  
[V:2] z[A,2C,2] & F,,3 |]
